!!!!SEGMENT: pl-sa--481-a-viii-121--049_anonim--mazur.krn
!!!cenid: 18xx:420
!!!COM: Anonim
!!!COM-rismID: pe30004985
!!!CDT:
!!!CNT:
!!!OTL: Mazur
!!!PDT:
!!!AGN: Secular; Mazurka
!!!SMS-siglum: PL-SA
!!!SMS-shelfmark: 481/A VIII 121
!!!SMS-shelfwork: 049 W
!!!SMS-variant:
!!!SMS-altvar:
!!!NIFC-rismSourceID: 1001070737
!!!NIFC-islandoraID:
!!!URL-pdf-islandora:
!!!URL-scan: https://bc.bdsandomierz.pl/dlibra/publication/1212/edition/1171/content @EN{Scan in the Sandomierz Diocese Digital Library} @PL{Skany w portalu Cyfrowa Biblioteka Diecezjalna w Sandomierzu}
!!!ONB-nifc: Str. 35, s. 1-2
!!!AIN: 1 piano
!!!key:
**kern	**kern
*part1	*part1
*staff2	*staff1
*Ipiano	*Iempty
*I"Piano	*
*I'P-no	*
*clefF4	*clefG2
*k[]	*k[]
*C:	*C:
*M3/8	*M3/8
*>[A,A,B,B]	*>[A,A,B,B]
=1	=1
*>A	*>A
!LO:N:vis=8.	!LO:TX:a:t=Mazur
4.e 4.c 4.G\	16g\LL
.	16cc\J
.	8ee\
.	16ee\L
.	16cc\JJ
=2	=2
!LO:N:vis=8.	!
4.d 4.B 4.G\	16b\LL
.	16dd\J
.	8gg\
.	16gg\L
.	16ff\JJ
=3	=3
!LO:N:vis=8.	!
4.e 4.c 4.G\	8ee\L
.	16ee\L
.	16dd\
.	16ee\
.	16cc\JJ
=4	=4
!LO:N:vis=8.	!
4.d 4.B 4.G\	16dd\LL
.	16b\JJ
.	8g/L
.	8g/J
=5	=5
!LO:N:vis=8.	!
4.e 4.c 4.G\	16g\LL
.	16cc\JJ
.	8ee\L
.	16ee\L
.	16cc\JJ
=6	=6
!LO:N:vis=8.	!
4.d 4.B 4.G\	16b\LL
.	16dd\JJ
.	8gg\L
.	16gg\L
.	16ff\JJ
=7	=7
8eL 8A\	8ee\L
8e 8A\	16ee\L
.	16gg\
8dJ 8B 8G\	16ff\
.	16dd\JJ
=8	=8
!LO:N:vis=8.	!
4.e 4.c 4.G\	16dd\LL
.	16cc\JJ
.	4cc\
=9:|!|:	=9:|!|:
*>B	*>B
!LO:N:vis=8.	!
4.e 4.c 4.G\	8gg\L
.	8gg\J
.	16gg\LL
.	16ee\JJ
=10	=10
*rep	*
!LO:N:vis=8.	!
4.e 4.c 4.G\	16aa\LL
.	16gg\
.	16ff\
.	16ee\
.	16dd\
.	16cc\JJ
*Xrep	*
=11	=11
!LO:N:vis=8.	!
4.d 4.B 4.G\	16b\LL
.	16dd\JJ
.	8gg\L
.	16gg\L
.	16ff\JJ
!LO:LB:g=original	!LO:LB:g=original
=12	=12
!LO:N:vis=8.	!
4.e 4.c 4.G\	16ff\LL
.	16ee\JJ
.	4ee\
=13	=13
!LO:N:vis=8.	!LO:N:vis=16
4.e 4.c 4.G\	8gg\L
.	8gg\J
.	16gg\LL
.	16ee\JJ
=14	=14
!LO:N:vis=8.	!
4.e 4.c 4.G\	16aa\LL
.	16gg\
.	16ff\
.	16ee\
.	16dd\
.	16cc\JJ
=15	=15
!LO:N:vis=8.	!
4.d 4.B 4.G\	16b\LL
.	16dd\JJ
.	8gg\L
.	16gg\L
.	16b\JJ
=16	=16
!LO:N:vis=8.	!
4.e 4.c 4.G\	16dd\LL
.	16cc\JJ
.	4cc\
=:|!;;	=:|!;;
*-	*-
!!!system-decoration: {s1,s2}
!!!ENC: Marta Lawrence
!!!END: 2020-11-23
!!!ENC: Anastazja Marusiak
!!!END: 2020-06-15
